germany/municipalities/03241018.svg

<?xml version="1.0" encoding="UTF-8" standalone="no"?>
<!-- Created with Inkscape (http://www.inkscape.org/) -->
<svg
   xmlns:svg="http://www.w3.org/2000/svg"
   xmlns="http://www.w3.org/2000/svg"
   version="1.0"
   width="160"
   height="177"
   id="svg2453">
  <defs
     id="defs2456" />
  <path
     d="M 1.2504941,1.3833595 L 158.74951,1.3833595 L 158.74951,96.867145 C 158.74951,140.33687 123.46973,175.61666 79.999999,175.61666 C 36.53027,175.61666 1.2504907,140.33687 1.2504907,96.867145 L 1.2504941,1.3833595 z "
     style="fill:#fff200;fill-opacity:1;stroke:none;stroke-width:0.1;stroke-linecap:round;stroke-linejoin:round;stroke-miterlimit:4;stroke-dashoffset:0;stroke-opacity:1"
     id="path2464" />
  <path
     d="M 80,1.375 C 62.891618,70.603407 27.879027,95.128214 1.25,96.78125 L 1.25,96.875 C 1.25,106.40869 2.9543375,115.53996 6.0625,124 C 42.105213,120.62268 72.763101,61.215423 80,1.375 L 80,1.375 z M 80,1.375 C 76.051157,50.913312 54.813959,131.31995 19.3125,147.03125 C 25.062691,153.97796 31.995421,159.923 39.78125,164.5625 C 55.31195,146.24088 76.674526,87.939425 80,1.375 L 80,1.375 z M 80,1.375 C 77.728316,60.340205 79.931222,121.81787 66.125,174.375 C 70.629084,175.1766 75.26674,175.625 80,175.625 C 84.73326,175.625 89.370916,175.1766 93.875,174.375 C 80.068781,121.81787 82.271684,60.340205 80,1.375 L 80,1.375 z M 80,1.375 C 83.325474,87.939425 104.68805,146.24088 120.21875,164.5625 C 128.00458,159.923 134.93731,153.97796 140.6875,147.03125 C 105.18604,131.31995 83.948843,50.913312 80,1.375 L 80,1.375 z M 80,1.375 C 88.062716,61.353059 117.89479,120.62268 153.9375,124 C 157.04566,115.53996 158.75,106.40869 158.75,96.875 L 158.75,96.78125 C 132.12097,95.128214 97.108382,70.603407 80,1.375 L 80,1.375 z "
     style="fill:#0072bc;fill-opacity:1;stroke:#000000;stroke-width:1.39999998;stroke-linecap:round;stroke-linejoin:round;stroke-miterlimit:4;stroke-dasharray:none;stroke-dashoffset:0;stroke-opacity:1;display:inline"
     id="path3308" />
  <path
     d="M 158.5,97 L 158.5,1.4999994 L 1.5,1.4999994 L 1.5000013,97 C 1.5000013,140.332 36.667999,175.5 80,175.5 C 123.332,175.5 158.5,140.332 158.5,97 z "
     style="fill:none;fill-opacity:1;stroke:#000000;stroke-width:2.4000001;stroke-linecap:butt;stroke-linejoin:miter;stroke-miterlimit:4;stroke-dasharray:none;stroke-opacity:1"
     id="path3183" />
</svg>

<svg xmlns="http://www.w3.org/2000/svg" version="1.0" width="160" height="177"><path d="M1.25 1.383h157.5v95.484c0 43.47-35.28 78.75-78.75 78.75s-78.75-35.28-78.75-78.75V1.383z" style="fill:#fff200;fill-opacity:1;stroke:none;stroke-width:.1;stroke-linecap:round;stroke-linejoin:round;stroke-miterlimit:4;stroke-dashoffset:0;stroke-opacity:1"/><path d="M80 1.375C62.892 70.603 27.879 95.128 1.25 96.781v.094A78.482 78.482 0 0 0 6.063 124C42.105 120.623 72.763 61.215 80 1.375h0zm0 0C76.051 50.913 54.814 131.32 19.312 147.031a79.271 79.271 0 0 0 20.47 17.531C55.311 146.242 76.674 87.94 80 1.375h0zm0 0c-2.272 58.965-.069 120.443-13.875 173A79.145 79.145 0 0 0 80 175.625c4.733 0 9.37-.448 13.875-1.25C80.069 121.818 82.272 60.34 80 1.375h0zm0 0c3.325 86.564 24.688 144.866 40.219 163.188a79.271 79.271 0 0 0 20.469-17.532C105.185 131.32 83.947 50.913 80 1.375h0zm0 0C88.063 61.353 117.895 120.623 153.938 124a78.482 78.482 0 0 0 4.812-27.125v-.094C132.121 95.128 97.108 70.603 80 1.375h0z" style="fill:#0072bc;fill-opacity:1;stroke:#000;stroke-width:1.39999998;stroke-linecap:round;stroke-linejoin:round;stroke-miterlimit:4;stroke-dasharray:none;stroke-dashoffset:0;stroke-opacity:1;display:inline"/><path d="M158.5 97V1.5H1.5V97c0 43.332 35.168 78.5 78.5 78.5s78.5-35.168 78.5-78.5z" style="fill:none;fill-opacity:1;stroke:#000;stroke-width:2.4000001;stroke-linecap:butt;stroke-linejoin:miter;stroke-miterlimit:4;stroke-dasharray:none;stroke-opacity:1"/></svg>
